packages/core/src/svgs/apw.svg

<svg width="24" height="24" viewBox="0 0 24 24" fill="none" xmlns="http://www.w3.org/2000/svg">
<g clip-path="url(#clip0_31_6014)">
<path d="M0 0H24V24H0V0Z" fill="url(#paint0_linear_31_6014)"/>
<path fill-rule="evenodd" clip-rule="evenodd" d="M11.7857 18.8572V17.8886L9.84852 16.2858H6.68138L7.76995 14.5715L6.85709 13.8172V10.1829L11.7857 6.32578V5.14293C10.0101 5.20573 8.32825 5.95523 7.09437 7.23352C5.86049 8.51182 5.17092 10.2191 5.17092 11.9958C5.17092 13.7724 5.86049 15.4797 7.09437 16.758C8.32825 18.0363 10.0101 18.7858 11.7857 18.8486V18.8572ZM18.8571 12.0001C18.858 13.7822 18.165 15.4946 16.925 16.7746C15.685 18.0546 13.9955 18.8015 12.2142 18.8572V17.8715L13.7999 16.2858H17.3057L16.3071 14.5929L17.1428 14.0444V10.1829L12.2142 6.32578V5.14293C13.9955 5.19862 15.685 5.94558 16.925 7.22555C18.165 8.50553 18.858 10.218 18.8571 12.0001ZM19.2857 12.0001C19.2857 13.9324 18.5181 15.7855 17.1517 17.1518C15.7854 18.5182 13.9322 19.2858 11.9999 19.2858C10.0677 19.2858 8.21451 18.5182 6.84817 17.1518C5.48183 15.7855 4.71423 13.9324 4.71423 12.0001C4.71423 10.0678 5.48183 8.21463 6.84817 6.84829C8.21451 5.48196 10.0677 4.71436 11.9999 4.71436C13.9322 4.71436 15.7854 5.48196 17.1517 6.84829C18.5181 8.21463 19.2857 10.0678 19.2857 12.0001ZM7.46138 15.8572L8.10423 14.8458L9.32995 15.8572H7.45709H7.46138ZM13.1957 16.2858L12.2142 17.2715V16.2858H13.1999H13.1957ZM16.5514 15.8572H12.2142V14.0401L9.54852 11.9529L11.9914 8.12578L16.5514 15.8572ZM12.0085 7.30293L9.20995 11.6872L7.41423 10.2858L11.9999 6.69864L16.5771 10.2858L14.6357 11.7644L12.0085 7.30721V7.30293ZM7.28566 13.6115V10.7272L11.7857 14.2458V17.3315L7.28566 13.6115ZM14.8542 12.1286L16.7142 10.7144V13.8129L16.0885 14.2244L14.8542 12.1286Z" fill="#FEC093"/>
</g>
<defs>
<linearGradient id="paint0_linear_31_6014" x1="4.46571" y1="4.16143" x2="29.2071" y2="32.58" gradientUnits="userSpaceOnUse">
<stop stop-color="#1A1E21"/>
<stop offset="1" stop-color="#06060A"/>
</linearGradient>
<clipPath id="clip0_31_6014">
<rect width="24" height="24" fill="white"/>
</clipPath>
</defs>
</svg>

<svg xmlns="http://www.w3.org/2000/svg" width="24" height="24" fill="none" viewBox="0 0 24 24"><g clip-path="url(#a)"><path fill="url(#b)" d="M0 0h24v24H0z"/><path fill="#FEC093" fill-rule="evenodd" d="M11.786 18.857v-.968l-1.937-1.603H6.68L7.77 14.57l-.913-.754v-3.634l4.929-3.857V5.143a6.857 6.857 0 0 0 0 13.706zM18.857 12a6.857 6.857 0 0 1-6.643 6.857v-.985l1.586-1.586h3.506l-.999-1.693.836-.549v-3.861l-4.929-3.857V5.143A6.857 6.857 0 0 1 18.857 12m.429 0a7.285 7.285 0 1 1-14.57 0 7.285 7.285 0 0 1 14.57 0M7.46 15.857l.643-1.011 1.226 1.011H7.457zm5.735.429-.982.985v-.985h.986zm3.355-.429h-4.337V14.04L9.55 11.953l2.442-3.827zM12.01 7.303l-2.8 4.384-1.795-1.401L12 6.699l4.577 3.587-1.941 1.478-2.627-4.457zm-4.723 6.309v-2.885l4.5 3.519v3.085zm7.568-1.483 1.86-1.415v3.099l-.625.411z" clip-rule="evenodd"/></g><defs><linearGradient id="b" x1="4.466" x2="29.207" y1="4.161" y2="32.58" gradientUnits="userSpaceOnUse"><stop stop-color="#1A1E21"/><stop offset="1" stop-color="#06060A"/></linearGradient><clipPath id="a"><path fill="#fff" d="M0 0h24v24H0z"/></clipPath></defs></svg>
